images/ico_help_step5.svg

<svg width="113" height="113" viewBox="0 0 113 113" fill="none" xmlns="http://www.w3.org/2000/svg">
<path fill-rule="evenodd" clip-rule="evenodd" d="M56.5 113C87.7041 113 113 87.7041 113 56.5C113 25.2959 87.7041 0 56.5 0C25.2959 0 0 25.2959 0 56.5C0 87.7041 25.2959 113 56.5 113ZM56.5 109C85.7711 109 109.5 85.4949 109.5 56.5C109.5 27.5051 85.7711 4 56.5 4C27.2289 4 3.5 27.5051 3.5 56.5C3.5 85.4949 27.2289 109 56.5 109Z" fill="url(#paint0_linear)"/>
<path d="M43.0646 41.7519H41.1606V39.8479C41.1606 39.1199 40.5446 38.5039 39.8166 38.5039C39.0886 38.5039 38.4726 39.1199 38.4726 39.8479V41.7519H36.5686C35.8406 41.7519 35.2246 42.3679 35.2246 43.0959C35.2246 43.8239 35.8406 44.4399 36.5686 44.4399H38.4726V46.3439C38.4726 47.0719 39.0886 47.6879 39.8166 47.6879C40.5446 47.6879 41.1606 47.0719 41.1606 46.3439V44.4399H43.0646C43.7926 44.4399 44.4086 43.8239 44.4086 43.0959C44.4086 42.3679 43.7926 41.7519 43.0646 41.7519Z" fill="url(#paint1_linear)" stroke="url(#paint2_linear)" stroke-width="0.7"/>
<path d="M50.289 43.0959C50.289 37.3279 45.585 32.6799 39.873 32.6799C34.105 32.6799 29.457 37.3839 29.457 43.0959C29.457 48.8079 34.161 53.5119 39.873 53.5119C45.585 53.5119 50.289 48.8639 50.289 43.0959ZM39.817 50.9919C35.449 50.9919 31.921 47.4639 31.921 43.0959C31.921 38.7279 35.505 35.1999 39.817 35.1999C44.185 35.1999 47.713 38.7279 47.713 43.0959C47.713 47.4639 44.185 50.9919 39.817 50.9919Z" fill="url(#paint3_linear)" stroke="url(#paint4_linear)" stroke-width="0.7"/>
<path d="M74.9297 41.752H69.4417C68.7137 41.752 68.0977 42.368 68.0977 43.096C68.0977 43.824 68.7137 44.44 69.4417 44.44H74.9297C75.6577 44.44 76.2737 43.824 76.2737 43.096C76.2177 42.368 75.6577 41.752 74.9297 41.752Z" fill="url(#paint5_linear)" stroke="url(#paint6_linear)" stroke-width="0.7"/>
<path d="M72.1855 32.624C66.4175 32.624 61.7695 37.328 61.7695 43.04C61.7695 48.752 66.4735 53.456 72.1855 53.456C77.8975 53.456 82.6015 48.752 82.6015 43.04C82.6015 37.328 77.8975 32.624 72.1855 32.624ZM72.1855 50.992C67.8175 50.992 64.2895 47.464 64.2895 43.096C64.2895 38.728 67.8175 35.2 72.1855 35.2C76.5535 35.2 80.0815 38.728 80.0815 43.096C80.0815 47.464 76.4975 50.992 72.1855 50.992Z" fill="url(#paint7_linear)" stroke="url(#paint8_linear)" stroke-width="0.7"/>
<path d="M74.7043 66.672C73.9203 66.672 73.1363 66.896 72.5203 67.232C71.7363 65.776 70.1683 64.768 68.3763 64.768C67.5923 64.768 66.8083 64.992 66.1923 65.328C65.4083 63.872 63.8403 62.864 62.0483 62.864C61.4883 62.864 60.9283 62.976 60.4243 63.144V54.184C60.4243 52.896 59.9203 51.72 59.0243 50.824C58.1283 49.928 56.9523 49.368 55.6643 49.424C53.0883 49.424 50.9603 51.552 50.9603 54.128V74.736L48.8323 72.608C47.2083 70.984 44.6883 70.76 42.8403 72.048C41.7203 72.776 40.9923 74.008 40.7683 75.296C40.6003 76.64 40.9363 77.984 41.8323 78.992L46.7043 84.76C46.9843 85.096 47.4323 85.32 47.8803 85.32C48.2163 85.32 48.5523 85.208 48.8883 84.984C49.5603 84.424 49.6163 83.472 49.0563 82.8L44.2403 77.032C43.9043 76.64 43.7923 76.192 43.8483 75.688C43.9043 75.184 44.1843 74.792 44.5763 74.512C45.2483 74.064 46.1443 74.12 46.7043 74.736L50.1763 78.208C50.8483 78.88 51.8003 79.048 52.6403 78.712C53.4803 78.376 54.0403 77.536 54.0403 76.584V54.184C54.0403 53.288 54.7683 52.56 55.6643 52.56C56.1123 52.56 56.5043 52.728 56.8403 53.064C57.1763 53.4 57.3443 53.792 57.3443 54.24V69.64C57.3443 70.48 58.0163 71.152 58.8563 71.152C59.6963 71.152 60.3683 70.48 60.3683 69.64V67.512C60.3683 66.616 61.0963 65.888 61.9923 65.888C62.8883 65.888 63.6163 66.616 63.6163 67.512V71.544C63.6163 72.384 64.2883 73.056 65.1283 73.056C65.9683 73.056 66.6403 72.384 66.6403 71.544V69.416C66.6403 68.52 67.3683 67.792 68.2643 67.792C69.1603 67.792 70.0003 68.52 70.0003 69.416V73.448C70.0003 74.288 70.6723 74.96 71.5123 74.96C72.3523 74.96 73.0243 74.288 73.0243 73.448V71.488C73.0243 71.432 73.0243 71.376 73.0243 71.32C73.0243 70.424 73.7523 69.696 74.6483 69.696C75.5443 69.696 76.2723 70.424 76.2723 71.32V83.808C76.2723 84.648 76.9443 85.32 77.7843 85.32C78.6243 85.32 79.2963 84.648 79.2963 83.808V71.32C79.4083 68.744 77.3363 66.672 74.7043 66.672Z" fill="url(#paint9_linear)" stroke="url(#paint10_linear)" stroke-width="0.7"/>
<defs>
<linearGradient id="paint0_linear" x1="56.5" y1="0" x2="35.64" y2="118.375" gradientUnits="userSpaceOnUse">
<stop stop-color="#50CFFA"/>
<stop offset="0.999201" stop-color="#52A2ED"/>
</linearGradient>
<linearGradient id="paint1_linear" x1="39.8166" y1="38.5039" x2="38.1212" y2="48.1248" gradientUnits="userSpaceOnUse">
<stop stop-color="#50CFFA"/>
<stop offset="0.999201" stop-color="#52A2ED"/>
</linearGradient>
<linearGradient id="paint2_linear" x1="39.8166" y1="38.5039" x2="39.8166" y2="47.6879" gradientUnits="userSpaceOnUse">
<stop stop-color="#50CFFA"/>
<stop offset="1" stop-color="#51A5EE"/>
</linearGradient>
<linearGradient id="paint3_linear" x1="39.873" y1="32.6799" x2="36.0274" y2="54.5029" gradientUnits="userSpaceOnUse">
<stop stop-color="#50CFFA"/>
<stop offset="0.999201" stop-color="#52A2ED"/>
</linearGradient>
<linearGradient id="paint4_linear" x1="39.873" y1="32.6799" x2="39.873" y2="53.5119" gradientUnits="userSpaceOnUse">
<stop stop-color="#50CFFA"/>
<stop offset="1" stop-color="#51A5EE"/>
</linearGradient>
<linearGradient id="paint5_linear" x1="72.1857" y1="41.752" x2="72.018" y2="44.6455" gradientUnits="userSpaceOnUse">
<stop stop-color="#50CFFA"/>
<stop offset="0.999201" stop-color="#52A2ED"/>
</linearGradient>
<linearGradient id="paint6_linear" x1="72.1857" y1="41.752" x2="72.1857" y2="44.44" gradientUnits="userSpaceOnUse">
<stop stop-color="#50CFFA"/>
<stop offset="1" stop-color="#51A5EE"/>
</linearGradient>
<linearGradient id="paint7_linear" x1="72.1855" y1="32.624" x2="68.3399" y2="54.447" gradientUnits="userSpaceOnUse">
<stop stop-color="#50CFFA"/>
<stop offset="0.999201" stop-color="#52A2ED"/>
</linearGradient>
<linearGradient id="paint8_linear" x1="72.1855" y1="32.624" x2="72.1855" y2="53.456" gradientUnits="userSpaceOnUse">
<stop stop-color="#50CFFA"/>
<stop offset="1" stop-color="#51A5EE"/>
</linearGradient>
<linearGradient id="paint9_linear" x1="60.0136" y1="49.4202" x2="53.8209" y2="87.18" gradientUnits="userSpaceOnUse">
<stop stop-color="#50CFFA"/>
<stop offset="0.999201" stop-color="#52A2ED"/>
</linearGradient>
<linearGradient id="paint10_linear" x1="60.0136" y1="49.4202" x2="60.0136" y2="85.32" gradientUnits="userSpaceOnUse">
<stop stop-color="#50CFFA"/>
<stop offset="1" stop-color="#51A5EE"/>
</linearGradient>
</defs>
</svg>

<svg width="113" height="113" fill="none" xmlns="http://www.w3.org/2000/svg"><path fill-rule="evenodd" clip-rule="evenodd" d="M56.5 113c31.204 0 56.5-25.296 56.5-56.5S87.704 0 56.5 0 0 25.296 0 56.5 25.296 113 56.5 113zm0-4c29.271 0 53-23.505 53-52.5S85.771 4 56.5 4s-53 23.505-53 52.5 23.729 52.5 53 52.5z" fill="url(#paint0_linear)"/><path d="M43.065 41.752H41.16v-1.904c0-.728-.616-1.344-1.344-1.344-.728 0-1.344.616-1.344 1.344v1.904h-1.904c-.728 0-1.344.616-1.344 1.344 0 .728.616 1.344 1.344 1.344h1.904v1.904c0 .728.616 1.344 1.344 1.344.728 0 1.344-.616 1.344-1.344V44.44h1.904c.728 0 1.344-.616 1.344-1.344 0-.728-.616-1.344-1.344-1.344z" fill="url(#paint1_linear)" stroke="url(#paint2_linear)" stroke-width=".7"/><path d="M50.289 43.096c0-5.768-4.704-10.416-10.416-10.416-5.768 0-10.416 4.704-10.416 10.416 0 5.712 4.704 10.416 10.416 10.416 5.712 0 10.416-4.648 10.416-10.416zm-10.472 7.896a7.887 7.887 0 01-7.896-7.896c0-4.368 3.584-7.896 7.896-7.896a7.887 7.887 0 017.896 7.896 7.887 7.887 0 01-7.896 7.896z" fill="url(#paint3_linear)" stroke="url(#paint4_linear)" stroke-width=".7"/><path d="M74.93 41.752h-5.488c-.728 0-1.344.616-1.344 1.344 0 .728.616 1.344 1.344 1.344h5.488c.728 0 1.344-.616 1.344-1.344-.056-.728-.616-1.344-1.344-1.344z" fill="url(#paint5_linear)" stroke="url(#paint6_linear)" stroke-width=".7"/><path d="M72.186 32.624c-5.769 0-10.417 4.704-10.417 10.416 0 5.712 4.705 10.416 10.417 10.416 5.711 0 10.415-4.704 10.415-10.416 0-5.712-4.704-10.416-10.415-10.416zm0 18.368a7.887 7.887 0 01-7.897-7.896 7.887 7.887 0 017.897-7.896 7.887 7.887 0 017.895 7.896c0 4.368-3.584 7.896-7.895 7.896z" fill="url(#paint7_linear)" stroke="url(#paint8_linear)" stroke-width=".7"/><path d="M74.704 66.672a4.68 4.68 0 00-2.184.56 4.716 4.716 0 00-4.144-2.464 4.68 4.68 0 00-2.184.56 4.716 4.716 0 00-4.144-2.464c-.56 0-1.12.112-1.624.28v-8.96a4.7 4.7 0 00-1.4-3.36c-.896-.896-2.072-1.456-3.36-1.4-2.576 0-4.704 2.128-4.704 4.704v20.608l-2.128-2.128c-1.624-1.624-4.144-1.848-5.992-.56-1.12.728-1.848 1.96-2.072 3.248-.168 1.344.168 2.688 1.064 3.696l4.872 5.768c.28.336.728.56 1.176.56.336 0 .672-.112 1.008-.336.672-.56.728-1.512.168-2.184l-4.816-5.768c-.336-.392-.448-.84-.392-1.344.056-.504.336-.896.728-1.176.672-.448 1.568-.392 2.128.224l3.472 3.472c.672.672 1.624.84 2.464.504.84-.336 1.4-1.176 1.4-2.128v-22.4c0-.896.728-1.624 1.624-1.624.448 0 .84.168 1.176.504.336.336.504.728.504 1.176v15.4c0 .84.672 1.512 1.512 1.512s1.512-.672 1.512-1.512v-2.128a1.625 1.625 0 013.248 0v4.032c0 .84.672 1.512 1.512 1.512s1.512-.672 1.512-1.512v-2.128c0-.896.728-1.624 1.624-1.624.896 0 1.736.728 1.736 1.624v4.032c0 .84.672 1.512 1.512 1.512s1.512-.672 1.512-1.512V71.32a1.625 1.625 0 013.248 0v12.488c0 .84.672 1.512 1.512 1.512s1.512-.672 1.512-1.512V71.32c.112-2.576-1.96-4.648-4.592-4.648z" fill="url(#paint9_linear)" stroke="url(#paint10_linear)" stroke-width=".7"/><defs><linearGradient id="paint0_linear" x1="56.5" y1="0" x2="35.64" y2="118.375" gradientUnits="userSpaceOnUse"><stop stop-color="#50CFFA"/><stop offset=".999" stop-color="#52A2ED"/></linearGradient><linearGradient id="paint1_linear" x1="39.817" y1="38.504" x2="38.121" y2="48.125" gradientUnits="userSpaceOnUse"><stop stop-color="#50CFFA"/><stop offset=".999" stop-color="#52A2ED"/></linearGradient><linearGradient id="paint2_linear" x1="39.817" y1="38.504" x2="39.817" y2="47.688" gradientUnits="userSpaceOnUse"><stop stop-color="#50CFFA"/><stop offset="1" stop-color="#51A5EE"/></linearGradient><linearGradient id="paint3_linear" x1="39.873" y1="32.68" x2="36.027" y2="54.503" gradientUnits="userSpaceOnUse"><stop stop-color="#50CFFA"/><stop offset=".999" stop-color="#52A2ED"/></linearGradient><linearGradient id="paint4_linear" x1="39.873" y1="32.68" x2="39.873" y2="53.512" gradientUnits="userSpaceOnUse"><stop stop-color="#50CFFA"/><stop offset="1" stop-color="#51A5EE"/></linearGradient><linearGradient id="paint5_linear" x1="72.186" y1="41.752" x2="72.018" y2="44.645" gradientUnits="userSpaceOnUse"><stop stop-color="#50CFFA"/><stop offset=".999" stop-color="#52A2ED"/></linearGradient><linearGradient id="paint6_linear" x1="72.186" y1="41.752" x2="72.186" y2="44.44" gradientUnits="userSpaceOnUse"><stop stop-color="#50CFFA"/><stop offset="1" stop-color="#51A5EE"/></linearGradient><linearGradient id="paint7_linear" x1="72.186" y1="32.624" x2="68.34" y2="54.447" gradientUnits="userSpaceOnUse"><stop stop-color="#50CFFA"/><stop offset=".999" stop-color="#52A2ED"/></linearGradient><linearGradient id="paint8_linear" x1="72.186" y1="32.624" x2="72.186" y2="53.456" gradientUnits="userSpaceOnUse"><stop stop-color="#50CFFA"/><stop offset="1" stop-color="#51A5EE"/></linearGradient><linearGradient id="paint9_linear" x1="60.014" y1="49.42" x2="53.821" y2="87.18" gradientUnits="userSpaceOnUse"><stop stop-color="#50CFFA"/><stop offset=".999" stop-color="#52A2ED"/></linearGradient><linearGradient id="paint10_linear" x1="60.014" y1="49.42" x2="60.014" y2="85.32" gradientUnits="userSpaceOnUse"><stop stop-color="#50CFFA"/><stop offset="1" stop-color="#51A5EE"/></linearGradient></defs></svg>
